svgs/sharp-solid/file-chart-pie.svg

<svg xmlns="http://www.w3.org/2000/svg" viewBox="0 0 384 512"><!--! Font Awesome Pro 6.6.0 by @fontawesome - https://fontawesome.com License - https://fontawesome.com/license (Commercial License) Copyright 2024 Fonticons, Inc. --><path d="M224 0L0 0 0 512l384 0 0-352-160 0L224 0zm32 0l0 128 128 0L256 0zm56 320l-120 0 0-120c66.3 0 120 53.7 120 120zM160 210.4L160 352l141.6 0c-11.1 54.8-59.5 96-117.6 96c-66.3 0-120-53.7-120-120c0-58.1 41.2-106.5 96-117.6z"/></svg>

<svg xmlns="http://www.w3.org/2000/svg" viewBox="0 0 384 512"><!--! Font Awesome Pro 6.5.2 by @fontawesome - https://fontawesome.com License - https://fontawesome.com/license (Commercial License) Copyright 2024 Fonticons, Inc. --><path d="M224 0H0V512H384V160H224V0zm32 0V128H384L256 0zm56 320H192V200c66.3 0 120 53.7 120 120zM160 210.4V352H301.6c-11.1 54.8-59.5 96-117.6 96c-66.3 0-120-53.7-120-120c0-58.1 41.2-106.5 96-117.6z"/></svg>
